suite-common/icons/assets/icons/trezorT2B1.svg

<svg xmlns="http://www.w3.org/2000/svg" fill="none" viewBox="0 0 24 24">
  <path fill="#000" fill-rule="evenodd" d="M10.4 1.043c-1.399.064-3.316.263-3.665.38-.391.131-.672.31-.995.635-.34.341-.522.635-.646 1.042-.07.229-.074.533-.074 6.38v6.14l.091.451c.104.511.274 1.02.478 1.429.305.612 2.681 4.641 2.846 4.827.221.247.429.39.785.537l.28.116h5l.28-.116c.356-.147.564-.29.785-.537.165-.186 2.541-4.215 2.846-4.827.204-.409.374-.918.478-1.429l.091-.451V3.3l-.093-.26a2.5 2.5 0 0 0-.644-1.005c-.312-.313-.678-.537-1.039-.634-.228-.061-1.207-.181-2.104-.258a37 37 0 0 0-4.7-.1m2.64 1.477c1.826.063 3.611.243 3.908.394.202.103.427.352.497.551.045.127.055.784.055 3.595v3.44h-11V7.06c0-2.811.01-3.468.055-3.595.07-.199.295-.448.497-.551.283-.144 2.136-.338 3.748-.391.495-.017.945-.033 1-.036s.613.012 1.24.033m4.469 11.23c-.021 1.847-.028 1.934-.232 2.57a5 5 0 0 1-.233.56c-.217.433-2.515 4.363-2.615 4.47a.56.56 0 0 1-.226.13c-.192.053-4.214.053-4.406 0a.56.56 0 0 1-.226-.13c-.1-.107-2.398-4.037-2.615-4.47a5 5 0 0 1-.233-.56c-.204-.636-.211-.723-.232-2.57L6.472 12h11.056zm-9.704-.471c-.615.15-.744.984-.209 1.348.187.128.385.14 2.084.126 1.628-.014 1.618-.013 1.834-.208.15-.136.219-.308.219-.545s-.069-.409-.219-.545c-.217-.197-.196-.195-1.934-.202-.902-.004-1.701.008-1.775.026m5 0c-.615.15-.744.984-.209 1.348.187.128.385.14 2.084.126 1.628-.014 1.618-.013 1.834-.208.15-.136.219-.308.219-.545s-.069-.409-.219-.545c-.217-.197-.196-.195-1.934-.202-.902-.004-1.701.008-1.775.026"/>
</svg>

<svg xmlns="http://www.w3.org/2000/svg" fill="none" viewBox="0 0 24 24"><path d="M10.400 1.043 C 9.001 1.107,7.084 1.306,6.735 1.423 C 6.344 1.554,6.063 1.733,5.740 2.058 C 5.400 2.399,5.218 2.693,5.094 3.100 C 5.024 3.329,5.020 3.633,5.020 9.480 L 5.020 15.620 5.111 16.071 C 5.215 16.582,5.385 17.091,5.589 17.500 C 5.894 18.112,8.270 22.141,8.435 22.327 C 8.656 22.574,8.864 22.717,9.220 22.864 L 9.500 22.980 12.000 22.980 L 14.500 22.980 14.780 22.864 C 15.136 22.717,15.344 22.574,15.565 22.327 C 15.730 22.141,18.106 18.112,18.411 17.500 C 18.615 17.091,18.785 16.582,18.889 16.071 L 18.980 15.620 18.980 9.460 L 18.980 3.300 18.887 3.040 C 18.739 2.630,18.569 2.363,18.243 2.035 C 17.931 1.722,17.565 1.498,17.204 1.401 C 16.976 1.340,15.997 1.220,15.100 1.143 C 13.525 1.009,11.891 0.974,10.400 1.043 M13.040 2.520 C 14.866 2.583,16.651 2.763,16.948 2.914 C 17.150 3.017,17.375 3.266,17.445 3.465 C 17.490 3.592,17.500 4.249,17.500 7.060 L 17.500 10.500 12.000 10.500 L 6.500 10.500 6.500 7.060 C 6.500 4.249,6.510 3.592,6.555 3.465 C 6.625 3.266,6.850 3.017,7.052 2.914 C 7.335 2.770,9.188 2.576,10.800 2.523 C 11.295 2.506,11.745 2.490,11.800 2.487 C 11.855 2.484,12.413 2.499,13.040 2.520 M17.509 13.750 C 17.488 15.597,17.481 15.684,17.277 16.320 C 17.231 16.463,17.126 16.715,17.044 16.880 C 16.827 17.313,14.529 21.243,14.429 21.350 C 14.384 21.400,14.282 21.458,14.203 21.480 C 14.011 21.533,9.989 21.533,9.797 21.480 C 9.718 21.458,9.616 21.400,9.571 21.350 C 9.471 21.243,7.173 17.313,6.956 16.880 C 6.874 16.715,6.769 16.463,6.723 16.320 C 6.519 15.684,6.512 15.597,6.491 13.750 L 6.472 12.000 12.000 12.000 L 17.528 12.000 17.509 13.750 M7.805 13.279 C 7.190 13.429,7.061 14.263,7.596 14.627 C 7.783 14.755,7.981 14.767,9.680 14.753 C 11.308 14.739,11.298 14.740,11.514 14.545 C 11.664 14.409,11.733 14.237,11.733 14.000 C 11.733 13.763,11.664 13.591,11.514 13.455 C 11.297 13.258,11.318 13.260,9.580 13.253 C 8.678 13.249,7.879 13.261,7.805 13.279 M12.805 13.279 C 12.190 13.429,12.061 14.263,12.596 14.627 C 12.783 14.755,12.981 14.767,14.680 14.753 C 16.308 14.739,16.298 14.740,16.514 14.545 C 16.664 14.409,16.733 14.237,16.733 14.000 C 16.733 13.763,16.664 13.591,16.514 13.455 C 16.297 13.258,16.318 13.260,14.580 13.253 C 13.678 13.249,12.879 13.261,12.805 13.279 " stroke="none" fill-rule="evenodd" fill="black"></path></svg>
